X:128
T: Richmudis von Adocht
N: Q1112C
O: Mitteleuropa, Deutschland
N: Melodievergleich zu Q0112A, anderes Lied. Taktart in 3/2 gedeutet.
R: geistlich
M: 3/2
L: 1/2
K: G
G | G2_B | A2_B | c2_B | A2
d | c2_B | A2
G | d2d | c2A | c2_B | A2
=F | G2E | DE=F | G_BA | G2

